X:1
T:Chi e costei
T:Chi e costei
T:Francesca Caccini
T:Source : Primo libro delle Musische a 1 e 2 voci---Firenze---Z.Pignoni---1618. Editor : André Vierendeels (25/08/15).
T:Notes : Original clefs : C1, F4 Figures in BC are notated in original print See also part 2 :"Questa e colei", p.3 :"Pregiato Deus" and p 4 :"Cosi dicea".
T:Sonetto 2, part 1
C:Francesca Caccini
%%score 1 2
L:1/8
Q:1/4=80
M:4/4
K:F
V:1 treble nm="Soprano" snm="S"
V:2 bass nm="BC" snm="BC"
V:1
 z4 z2 A2 | A4- A2 z =B | c4 z2 c2 | d6 A2 | B6 c2 | c8 | B2 z F G3 A | B>c A/TA/A/G/ G3 B | %8
w: Chi|e _ cos-|tei che|qual sor-|gen- te'Au-|ro-|ra, i pas- si|muo- * * * * * ve, à|
 c3 G A>B A>B | c3 d d4 | c8 | c6 c2 | c4 TB3 A | A4 A3 c | d4- d>c B/A/G/F/ | G>A G/TG/^F/G/ .A4 | %16
w: par del so- * * *|* l'e- let-|ta,|bel- la|co- me la|lu- na e|qual _ s'a- * * * *|sper- * * * * * ta,|
 A2 AA B3 c | d4 TA>G .F>G | AB/c/ =Bc/d/ c4- | c2 G>G TG4 | F8 | G2 GG A3 B | %22
w: schie- ra d'ar- ma- ti'e-|roi trom- * * *||* ba so- no-|ra,|schie- ra d'ar- ma- ti'e-|
 Tc3 .B/A/ TG>F E/F/G/A/ | B4 Td3 c/B/ | TA>G F/G/F/G/ AB/c/ =B/B/A/B/ | c6 G>G | G8 | F8 |] %28
w: roi _ _ _ _ _ _ _ _|_ trom- * *||* ba so-|no-|ra.|
V:2
 F,,8 |"^-natural" F,4 D,4 |"^10""^11""^6" C,2 C,2 A,,4 | B,,4 ^F,,2 ^F,2 | G,2 D,2 _E,4 | %5
"^4""^10" F,4 F,,4 | B,,4 B,2 A,2 | G,2 F,2 _E,4 | _E,4 F,4 | %9
"^b""^4""^-natural10" E,2 F,2 G,2 G,,2 | C,4 C2 B,2 |"^6" A,2 G,F, E,2 F,2 | %12
"^6" C,2 A,,2 B,,2 C,2 | F,,4 F,,4 |"^6" F,4 D,4 |"^6" _E,4 D,4 | ^F,2 ^F,,2 G,,2 A,,2 | %17
"^-natural" B,,2 C,2 D,2 E,2 |"^6" F,,2 .G,,2 A,,2 B,,2 | C,2 =B,,2 C,4 | F,,8 | %21
"^6" E,,4 F,,2 G,,2 |"^6" A,,2 B,,2 C,4 | G,,2 A,,2 B,,2 C,2 |"^-natural" D,2 E,2 F,,2 G,,2 | %25
"^6" A,,6 B,,2 |"^11     10" C,8 | F,,8 |] %28

